remix/Weather/foggy-fill.svg

<svg viewBox="0 0 24 24" fill="currentColor" xmlns="http://www.w3.org/2000/svg"><path d="M1.5843 13.0069C1.20753 12.0786 1 11.0635 1 10C1 5.58172 4.58172 2 9 2C12.3949 2 15.2959 4.11466 16.4576 7.09864C16.7951 7.0339 17.1436 7 17.5 7C20.5376 7 23 9.46243 23 12.5C23 12.6709 22.9922 12.8399 22.977 13.0069H1.5843ZM4 19H21V21H4V19ZM2 15H23V17H2V15Z"/></svg>

<svg viewBox="0 0 24 24" xmlns="http://www.w3.org/2000/svg"><path fill="none" d="M0 0h24v24H0Z"/><path d="M1.58 13.007l0 0c-1.64-4.11.37-8.76 4.48-10.4 4.1-1.64 8.75.37 10.39 4.48V7.08c2.98-.58 5.86 1.37 6.44 4.35 .09.51.12 1.03.07 1.55H1.56ZM3.99 19h17v2h-17v-2Zm-2-4h21v2h-21v-2Z"/></svg>
